build/img/9-resources/caduceus.svg

<svg width="40" height="40" viewBox="0 0 40 40" fill="none" xmlns="http://www.w3.org/2000/svg">
<g clip-path="url(#clip0)">
<path d="M39.5677 2.33609C39.5577 1.94492 39.4986 1.5125 39.1356 1.27109C38.7205 0.995469 38.242 1.18187 37.7792 1.36266C36.6678 1.79625 35.5429 2.07805 34.2391 2.24961C33.9183 2.2918 33.6923 2.58609 33.7346 2.90695C33.7768 3.22773 34.0711 3.45383 34.392 3.41141C35.7918 3.22734 37.0035 2.9232 38.2053 2.45438C38.2481 2.43766 38.3208 2.4093 38.3966 2.38156C38.4198 3.35234 38.1641 4.10375 37.6151 4.67828C36.7292 5.60531 35.032 6.09875 32.5702 6.14477C32.2467 6.15086 31.9893 6.41805 31.9954 6.74164C32.0014 7.06148 32.2625 7.31656 32.581 7.31656C32.5848 7.31656 32.5885 7.31656 32.5923 7.31648C33.9711 7.2907 35.1338 7.13453 36.0943 6.84492C36.1108 7.63945 35.9149 8.2725 35.5 8.76562C35.2203 9.09813 34.8328 9.37344 34.3408 9.59133C34.3362 9.59344 34.3314 9.59531 34.3269 9.59758C33.4724 9.97258 32.3041 10.1755 30.8319 10.2024C30.5083 10.2084 30.2509 10.4755 30.2568 10.7991C30.2627 11.119 30.5238 11.3742 30.8424 11.3742C30.8461 11.3742 30.8498 11.3742 30.8534 11.3741C32.1045 11.3512 33.1631 11.2104 34.0402 10.9491C33.9986 11.5106 33.7989 12.0255 33.4415 12.486C32.6596 13.4934 31.2541 14.0657 30.1554 14.2051C30.0223 13.959 29.8723 13.717 29.7055 13.4812C28.9542 12.4163 27.7985 11.5059 26.6131 11.0454C25.3175 10.5445 24.241 10.6423 23.6589 11.3142C23.1182 11.941 23.1426 12.9909 23.3762 13.8702C22.8856 13.792 22.3869 13.7022 21.8834 13.6021V9.04195C23.7033 8.72156 25.2751 7.73133 26.3498 6.215L26.3737 6.18148C27.8531 4.12742 29.5113 3.84141 31.6924 3.66164C32.0149 3.63508 32.2547 3.35203 32.2281 3.02953C32.2015 2.70703 31.9194 2.46656 31.596 2.49375C29.2633 2.68602 27.1886 3.04469 25.4228 5.49656L25.3937 5.53734C24.5411 6.74031 23.3109 7.545 21.8833 7.84805V6.26C22.8048 5.64781 23.414 4.60047 23.414 3.41305C23.4138 1.53109 21.8827 0 20.0009 0C18.1178 0 16.5857 1.53109 16.5857 3.41305C16.5857 4.6 17.1947 5.64703 18.1163 6.2593V7.84812C16.6942 7.54539 15.4651 6.74203 14.6087 5.54102L14.5772 5.49703C12.6489 2.81898 10.406 2.64703 7.80899 2.44789C6.17266 2.32242 4.31797 2.18016 2.22266 1.36273C1.75946 1.18195 1.28047 0.995 0.864614 1.27133C0.500942 1.51305 0.441802 1.94516 0.43188 2.33516C0.397427 3.62344 0.769223 4.68414 1.53719 5.48781C1.87274 5.83898 2.27961 6.1382 2.75946 6.38727C2.64485 7.66352 2.9275 8.71672 3.60461 9.52109C3.91915 9.89469 4.31211 10.2107 4.78657 10.4703C4.72774 11.4819 5.02086 12.427 5.64547 13.2255C6.61329 14.4631 8.15555 15.1032 9.36735 15.3201C9.05774 16.2873 9.00891 17.2649 9.25024 18.1271C9.63446 19.4999 10.6799 20.5648 12.3572 21.2918L15.402 22.6133C14.4642 23.1111 13.6752 23.6534 13.0488 24.233C12.8113 24.4528 12.7968 24.8236 13.0166 25.0611C13.1322 25.1859 13.2892 25.2491 13.4469 25.2491C13.5892 25.2491 13.732 25.1975 13.8447 25.0932C14.5757 24.4167 15.5732 23.789 16.8118 23.2252L18.5277 23.9698L17.2209 24.5373C15.2064 25.4106 14.2584 26.3408 14.3229 27.3809C14.3858 28.3962 15.4281 29.229 17.3371 29.7889L18.5252 30.1379C18.5278 30.1387 18.5306 30.1395 18.5331 30.1402L24.3906 31.8606C26.2918 32.418 27.4531 33.5597 27.5766 34.9928C27.6727 36.1089 27.0939 37.1754 26.1362 37.6466C25.181 38.1166 24.5642 38.1098 24.3995 38.0481C24.4049 37.9676 24.4541 37.7209 24.8008 37.2384C25.5583 36.1879 25.7981 35.3009 25.5337 34.527C25.2821 33.7904 24.5898 33.2497 23.476 32.9199L16.3572 30.8089C16.2127 30.766 15.8932 30.6592 15.8714 30.6531C13.5808 29.8621 12.352 28.5827 12.5634 27.1766C12.6114 26.8565 12.391 26.5581 12.071 26.51C11.7495 26.4624 11.4526 26.6824 11.4045 27.0023C11.1545 28.6652 12.1485 30.1513 14.1202 31.1776C12.4377 31.9839 11.391 33.316 11.2552 34.8922C11.1177 36.4858 11.9579 38.0153 13.3457 38.698C13.9856 39.0129 14.7268 39.2506 15.3627 39.2506C15.8303 39.2505 16.2413 39.122 16.5131 38.8009C16.8218 38.4362 17.0094 37.7504 16.149 36.5529C15.6372 35.8432 15.4441 35.2891 15.5748 34.9063C15.7266 34.4621 16.3565 34.1919 16.8585 34.0434L18.1163 33.6705V38.1153C18.1163 39.1545 18.9616 39.9998 20.0008 39.9998C21.0387 39.9998 21.8831 39.1545 21.8831 38.1153V33.6698L23.1431 34.0434C23.6441 34.1917 24.2732 34.4617 24.4247 34.9056C24.5556 35.2887 24.3623 35.8429 23.8498 36.5537C22.99 37.7504 23.1776 38.4363 23.4863 38.801C23.7581 39.1221 24.1688 39.2507 24.6366 39.2507C25.2726 39.2507 26.0137 39.013 26.6536 38.6981C28.0414 38.0155 28.8816 36.486 28.7442 34.8923C28.6081 33.3124 27.5566 31.9777 25.8673 31.172C27.5383 30.283 28.5008 29.0309 28.5587 27.613C28.6329 25.7963 27.2299 24.0089 24.6626 22.5858L27.6442 21.2919C29.3207 20.5648 30.3654 19.5002 30.7495 18.1276C30.9909 17.2643 30.9417 16.2855 30.6313 15.3173C31.8527 15.0928 33.4052 14.4439 34.3671 13.2047C34.9823 12.412 35.2708 11.4743 35.2127 10.4709C35.6881 10.2109 36.0817 9.89438 36.3966 9.52008C37.0734 8.71563 37.3555 7.66273 37.2402 6.38719C37.72 6.1382 38.1268 5.83898 38.4623 5.48789C39.2302 4.68422 39.6021 3.62352 39.5677 2.33609ZM16.5259 32.9199C15.4108 33.2498 14.7177 33.7907 14.466 34.5276C14.2016 35.3015 14.4413 36.1883 15.1981 37.2376C15.5452 37.7209 15.5944 37.9677 15.6 38.0482C15.4353 38.1098 14.8184 38.1166 13.8632 37.6466C12.9056 37.1755 12.3267 36.109 12.4229 34.9929C12.5464 33.5598 13.7077 32.4181 15.6115 31.8598L15.7034 31.8324C15.8088 31.8666 17.94 32.5005 17.94 32.5005L16.5259 32.9199ZM20.7113 38.1155C20.7113 38.5084 20.3926 38.8281 20.0009 38.8281C19.6079 38.8281 19.2882 38.5084 19.2882 38.1155V33.3232L20.0011 33.1119L20.7113 33.3225V38.1155ZM23.9436 15.1401C24.2451 15.5571 24.7429 16.0194 25.553 16.2927C26.3773 16.5708 26.604 16.8448 26.6087 16.951C26.6197 17.2027 26.0135 17.8295 24.6313 18.4352L21.8831 19.6399V14.7977C22.5827 14.9328 23.2721 15.0469 23.9436 15.1401ZM20.0009 1.17188C21.2366 1.17188 22.242 2.17727 22.242 3.41305C22.242 4.65 21.2366 5.65641 20.0009 5.65641C18.7639 5.65641 17.7576 4.65 17.7576 3.41305C17.7576 2.17727 18.7639 1.17188 20.0009 1.17188ZM20.0009 6.8282C20.2445 6.8282 20.482 6.80203 20.7113 6.75328V8.53164V8.53391V14.0775V14.0814V20.1537L19.9995 20.4657L19.2882 20.1539V14.0805C19.2882 14.0793 19.2882 14.0781 19.2882 14.077V8.53391C19.2882 8.53312 19.2882 8.53242 19.2882 8.53164V6.75289C19.5182 6.80188 19.7565 6.8282 20.0009 6.8282ZM16.0559 15.1399C16.7349 15.0458 17.4245 14.9321 18.1163 14.7983V19.6402L15.3683 18.4354C13.987 17.8295 13.3813 17.2024 13.3924 16.9507C13.3971 16.8447 13.6234 16.5707 14.4459 16.2929C15.2556 16.0206 15.7535 15.5584 16.0559 15.1399ZM6.56868 12.5037C6.20446 12.038 6.00126 11.5171 5.95954 10.949C6.83665 11.2105 7.89524 11.3513 9.14641 11.3743C9.15008 11.3744 9.15376 11.3744 9.15743 11.3744C9.47602 11.3744 9.73719 11.119 9.74305 10.7992C9.74891 10.4756 9.49149 10.2085 9.16797 10.2026C6.83766 10.1599 5.26758 9.6768 4.50141 8.76656C4.08625 8.27328 3.89 7.64008 3.90602 6.84516C4.86641 7.13469 6.02899 7.2907 7.40751 7.31656C7.41125 7.31664 7.415 7.31664 7.41875 7.31664C7.73727 7.31664 7.99836 7.06141 8.00438 6.74172C8.0104 6.41813 7.75297 6.15094 7.42954 6.14484C4.96782 6.09883 3.27055 5.60547 2.38469 4.67836C1.83571 4.10383 1.58 3.35234 1.60321 2.38086C1.67985 2.40875 1.7536 2.43758 1.79688 2.45445C4.05446 3.33531 6.00149 3.48461 7.7193 3.61633C10.2138 3.80758 12.0161 3.94578 13.6279 6.18422L13.6545 6.22141C14.7334 7.7343 16.3035 8.72227 18.1163 9.04211V13.6027C17.617 13.7023 17.1185 13.7919 16.6238 13.8705C16.8573 12.992 16.8819 11.9416 16.3409 11.3147C15.7607 10.6416 14.6845 10.5436 13.3883 11.0458C12.2024 11.5055 11.0458 12.4161 10.2942 13.4815C10.1272 13.7175 9.97696 13.9599 9.84383 14.2063C8.75633 14.0765 7.35766 13.5126 6.56868 12.5037ZM20.7113 24.9177V29.141L20.0004 29.3499L19.2882 29.1408V24.9174L19.9992 24.6087L20.7113 24.9177ZM22.3123 25.6126C23.9635 26.3284 24.5286 26.9581 24.5069 27.3086C24.4843 27.6727 23.8031 28.2333 22.332 28.6648L21.8831 28.7966V25.4263L22.3123 25.6126ZM15.4926 27.3086C15.4709 26.958 16.036 26.3284 17.6875 25.6125L18.1163 25.4263V28.7966L17.6673 28.6647C16.1963 28.2332 15.5152 27.6727 15.4926 27.3086ZM27.3878 27.5653C27.3375 28.7954 26.2034 29.896 24.2673 30.6019L22.0805 29.9601L22.6622 29.7891C24.5713 29.2291 25.6136 28.3964 25.6766 27.381C25.7409 26.3409 24.793 25.4107 22.7787 24.5375L12.8236 20.2167C11.4859 19.6369 10.6633 18.8276 10.3788 17.8113C10.0748 16.7248 10.4009 15.359 11.2513 14.1577C11.2516 14.1574 11.2517 14.1571 11.252 14.1569C11.8757 13.2726 12.8327 12.518 13.8119 12.1384C14.5588 11.849 15.2338 11.8248 15.4536 12.0799C15.736 12.4073 15.6145 13.5554 15.2224 14.2713C15.0601 14.565 14.7288 14.9613 14.0718 15.1823C12.8765 15.5858 12.254 16.1635 12.2217 16.8991C12.1706 18.063 13.6487 18.9605 14.8977 19.5084L22.8095 22.9771C25.7411 24.2618 27.4527 25.977 27.3878 27.5653ZM29.6209 17.8119C29.3366 18.828 28.5148 19.637 27.1779 20.2169L23.2851 21.9062C23.2834 21.9055 23.2816 21.9047 23.2799 21.9039L21.4588 21.1055L25.1016 19.5085C26.3513 18.9609 27.8304 18.0638 27.7793 16.8996C27.747 16.1637 27.124 15.5859 25.9274 15.1823C25.2704 14.9606 24.9392 14.5646 24.7783 14.2736C24.3852 13.5554 24.2635 12.4073 24.5452 12.0809C24.7696 11.8219 25.4307 11.845 26.1894 12.1383C27.1676 12.5182 28.124 13.2729 28.7482 14.1577C29.5987 15.3592 29.9249 16.7252 29.6209 17.8119Z" fill="#333333"/>
</g>
<defs>
<clipPath id="clip0">
<rect width="40" height="40" fill="white"/>
</clipPath>
</defs>
</svg>

<svg width="40" height="40" fill="none" xmlns="http://www.w3.org/2000/svg"><g clip-path="url(#clip0)"><path d="M39.568 2.336c-.01-.391-.07-.823-.432-1.065-.416-.276-.894-.09-1.357.092-1.111.433-2.236.715-3.54.887a.586.586 0 10.153 1.161c1.4-.184 2.611-.488 3.813-.957.043-.016.116-.045.192-.072.023.97-.233 1.722-.782 2.296-.886.927-2.583 1.42-5.045 1.467a.586.586 0 00.011 1.172h.011c1.38-.026 2.542-.182 3.502-.472.017.794-.18 1.428-.594 1.92-.28.333-.667.608-1.16.826l-.013.007c-.855.375-2.023.577-3.495.604a.586.586 0 00.01 1.172h.011c1.252-.023 2.31-.164 3.187-.425a2.802 2.802 0 01-.599 1.537c-.781 1.007-2.187 1.58-3.286 1.72a7.115 7.115 0 00-.45-.725c-.75-1.065-1.906-1.975-3.092-2.436-1.296-.5-2.372-.403-2.954.27-.54.626-.516 1.676-.283 2.555-.49-.078-.99-.168-1.493-.268v-4.56a6.874 6.874 0 004.467-2.827l.024-.034c1.48-2.054 3.137-2.34 5.318-2.52a.586.586 0 10-.096-1.167c-2.333.192-4.407.55-6.173 3.003l-.03.04a5.714 5.714 0 01-3.51 2.311V6.26a3.415 3.415 0 001.531-2.847A3.417 3.417 0 0020.001 0a3.418 3.418 0 00-3.415 3.413c0 1.187.609 2.234 1.53 2.846v1.59A5.735 5.735 0 0114.61 5.54l-.032-.044c-1.928-2.678-4.171-2.85-6.768-3.05-1.636-.125-3.491-.267-5.586-1.084C1.759 1.182 1.28.995.865 1.27.5 1.513.442 1.945.432 2.335c-.035 1.288.337 2.35 1.105 3.153.336.351.743.65 1.222.9-.114 1.276.169 2.329.846 3.133.314.374.707.69 1.182.95a4.012 4.012 0 00.858 2.755c.968 1.237 2.51 1.877 3.722 2.094-.31.967-.358 1.945-.117 2.807.384 1.373 1.43 2.438 3.107 3.165l3.045 1.321c-.938.498-1.727 1.04-2.353 1.62a.586.586 0 00.796.86c.73-.676 1.728-1.304 2.967-1.868l1.716.745-1.307.567c-2.015.874-2.963 1.804-2.898 2.844.063 1.015 1.105 1.848 3.014 2.408l1.188.349.008.002 5.858 1.72c1.9.558 3.062 1.7 3.186 3.133.096 1.116-.483 2.182-1.44 2.654-.956.47-1.573.463-1.738.401.006-.08.055-.327.402-.81.757-1.05.997-1.937.733-2.711-.252-.737-.944-1.277-2.058-1.607l-7.119-2.111c-.144-.043-.464-.15-.486-.156-2.29-.79-3.519-2.07-3.308-3.476a.586.586 0 00-1.159-.175c-.25 1.663.745 3.15 2.716 4.176-1.682.806-2.729 2.138-2.865 3.714-.137 1.594.703 3.123 2.09 3.806.64.315 1.382.553 2.018.553.467 0 .878-.129 1.15-.45.309-.365.496-1.05-.364-2.248-.512-.71-.705-1.264-.574-1.647.152-.444.782-.714 1.284-.863l1.257-.373v4.445c0 1.04.846 1.885 1.885 1.885a1.885 1.885 0 001.882-1.885V33.67l1.26.373c.501.149 1.13.419 1.282.863.13.383-.063.937-.575 1.648-.86 1.196-.672 1.882-.364 2.247.272.321.683.45 1.15.45.637 0 1.378-.238 2.018-.553 1.387-.682 2.228-2.212 2.09-3.806-.136-1.58-1.187-2.914-2.877-3.72 1.671-.889 2.634-2.141 2.692-3.559.074-1.817-1.33-3.604-3.896-5.027l2.981-1.294c1.677-.727 2.721-1.792 3.106-3.164.24-.864.192-1.843-.119-2.81 1.222-.225 2.774-.874 3.736-2.113.615-.793.904-1.73.846-2.734.475-.26.869-.577 1.184-.95.676-.805.959-1.858.843-3.134.48-.249.887-.548 1.222-.9.768-.803 1.14-1.863 1.106-3.15zM16.526 32.92c-1.115.33-1.808.87-2.06 1.608-.264.773-.025 1.66.732 2.71.347.483.396.73.402.81-.165.062-.782.069-1.737-.401-.957-.471-1.536-1.538-1.44-2.654.123-1.433 1.285-2.575 3.188-3.133l.092-.028c.106.035 2.237.669 2.237.669l-1.414.419zm4.185 5.195a.712.712 0 11-1.423 0v-4.792l.713-.211.71.21v4.793zm3.233-22.975c.301.417.799.88 1.609 1.153.824.278 1.051.552 1.056.658.01.252-.596.878-1.978 1.484l-2.748 1.205v-4.842c.7.135 1.39.249 2.06.342zM20 1.172a2.244 2.244 0 012.241 2.241 2.245 2.245 0 01-2.241 2.243 2.246 2.246 0 01-2.243-2.243A2.245 2.245 0 0120 1.172zm0 5.656c.243 0 .481-.026.71-.075v13.401l-.711.312-.712-.312V14.08 8.534 6.752c.23.05.468.076.713.076zm-3.945 8.312a39.226 39.226 0 002.06-.342v4.842l-2.748-1.205c-1.381-.605-1.987-1.233-1.976-1.484.005-.106.231-.38 1.054-.658.81-.272 1.308-.735 1.61-1.153zm-9.487-2.636a2.816 2.816 0 01-.61-1.555c.878.261 1.936.402 3.187.425h.011a.586.586 0 00.011-1.171c-2.33-.043-3.9-.526-4.667-1.436-.415-.494-.611-1.127-.595-1.922.96.29 2.123.446 3.502.472h.01a.586.586 0 00.012-1.172c-2.462-.046-4.16-.54-5.045-1.467-.55-.574-.805-1.326-.782-2.297l.194.073C4.054 3.335 6 3.484 7.719 3.616c2.495.192 4.297.33 5.909 2.568l.027.037a6.894 6.894 0 004.461 2.821v4.56c-.499.1-.997.19-1.492.268.233-.878.258-1.928-.283-2.555-.58-.673-1.657-.771-2.953-.27-1.186.46-2.342 1.371-3.094 2.437a7.091 7.091 0 00-.45.724c-1.088-.13-2.486-.693-3.275-1.702zM20.71 24.918v4.223l-.71.209-.713-.21v-4.223L20 24.61l.712.309zm1.601.695c1.651.715 2.217 1.345 2.195 1.696-.023.364-.704.924-2.175 1.356l-.449.132v-3.37l.43.186zm-6.82 1.696c-.021-.351.544-.98 2.195-1.697l.43-.186v3.37l-.45-.131c-1.47-.432-2.152-.992-2.174-1.356zm11.896.256c-.05 1.23-1.185 2.331-3.12 3.037l-2.188-.642.582-.17c1.91-.56 2.952-1.394 3.015-2.409.064-1.04-.884-1.97-2.898-2.843l-9.955-4.321c-1.338-.58-2.16-1.39-2.445-2.406-.304-1.086.022-2.452.872-3.653l.001-.001c.624-.884 1.58-1.639 2.56-2.019.747-.289 1.422-.313 1.642-.058.282.327.16 1.475-.232 2.191-.162.294-.493.69-1.15.911-1.195.404-1.818.981-1.85 1.717-.051 1.164 1.427 2.061 2.676 2.61l7.912 3.468c2.931 1.285 4.643 3 4.578 4.588zm2.233-9.753c-.284 1.016-1.106 1.825-2.443 2.405l-3.893 1.69a.118.118 0 01-.005-.003l-1.821-.799 3.643-1.596c1.25-.548 2.728-1.445 2.677-2.61-.032-.735-.655-1.313-1.852-1.717-.657-.221-.988-.617-1.149-.908-.393-.719-.514-1.867-.233-2.193.225-.26.886-.236 1.644.057.979.38 1.935 1.135 2.56 2.02.85 1.201 1.176 2.567.872 3.654z" fill="#333"/></g><defs><clipPath id="clip0"><path fill="#fff" d="M0 0h40v40H0z"/></clipPath></defs></svg>
